public/images/no-result.svg

<svg width="320" height="280" viewBox="0 0 320 280" fill="none" xmlns="http://www.w3.org/2000/svg">
<g clip-path="url(#clip0_1_2)">
<path d="M202.956 195.07L319.286 183.531L314.435 48.9714L211.64 59.5155L202.956 195.07Z" fill="#999999"/>
<path d="M202.956 44.5259L304.648 32.8709L309.358 184.515L202.956 195.07V44.5259Z" fill="#999999"/>
<path d="M208.672 43.5546L101.741 41.6121L107.456 189.242L202.956 195.07L208.672 43.5546Z" fill="#999999"/>
<path d="M203.909 36.5131L305.6 24.8581L312.745 176.859L203.909 187.057V36.5131Z" fill="#F9AE2B"/>
<path d="M203.909 182.025V187.057L312.745 176.859L312.51 171.849L203.909 182.025Z" fill="#E59413"/>
<path d="M203.909 36.5131L96.9777 34.5706L102.693 182.201L203.909 187.057V36.5131Z" fill="#F9AE2B"/>
<path d="M102.693 182.201L203.909 187.057V181.873L102.693 177.016V182.201Z" fill="#E59413"/>
<path d="M109.427 132.945C109.733 144.812 113.817 156.256 121.064 165.547C128.311 174.839 138.326 181.474 149.597 184.451L194.145 186.588V42.8262C194.145 42.8262 160.485 45.2629 125.584 35.0901L106.909 34.751L109.427 132.945ZM260.711 181.734C271.706 173.735 280.554 163.047 286.44 150.651C292.325 138.255 295.06 124.55 294.394 110.794L290.313 26.6101L265.651 29.4367C243.106 41.0743 215.537 48.3681 215.537 48.3681V185.967L260.711 181.734Z" fill="#E59413"/>
<path d="M203.909 36.513C203.909 36.513 260.828 21.4587 277.975 0.0911713L282.766 98.9394C283.695 118.101 278.018 136.99 266.72 152.332C255.422 167.674 239.215 178.501 220.908 182.938L203.909 187.057V36.513Z" fill="#F9AE2B"/>
<path d="M219.04 36.5131L203.909 187.057C203.909 187.057 223.177 185.573 224.688 185.11C241.607 169.286 251.239 142.699 248.944 119.08L239.722 24.2014C233.599 26.7632 227.597 28.9805 222.306 30.8002C220.366 34.24 219.04 36.5131 219.04 36.5131Z" fill="#E59413"/>
<path d="M203.909 36.513C203.909 36.513 220.342 8.3468 222.247 0.0911713L233.812 119.08C235.076 132.085 232.982 145.202 227.736 157.127C222.49 169.052 214.276 179.37 203.909 187.057L203.909 36.513ZM203.909 36.513C203.909 36.513 156.993 39.9124 116.507 21.9443L119.191 126.632C119.51 139.084 123.988 151.051 131.885 160.555C139.781 170.06 150.622 176.532 162.616 178.901L203.909 187.057L203.909 36.513Z" fill="#F9AE2B"/>
<path d="M203.909 36.513C204.73 49.0584 205.16 61.6037 205.452 74.149C205.635 80.4217 205.675 86.6943 205.783 92.967L205.893 111.785L205.788 130.603C205.678 136.876 205.642 143.148 205.458 149.421C205.167 161.966 204.735 174.512 203.909 187.057C203.083 174.512 202.651 161.966 202.36 149.421C202.176 143.148 202.141 136.876 202.03 130.603L201.926 111.785L202.035 92.967C202.143 86.6943 202.184 80.4217 202.366 74.149C202.658 61.6037 203.088 49.0584 203.909 36.513ZM134.598 57.7136C139.603 58.1452 144.51 58.7594 149.416 59.347L164.076 61.1369C168.956 61.7226 173.832 62.2115 178.727 62.6996C183.627 63.1752 188.525 63.4696 193.541 63.9053C188.655 65.1091 183.655 65.7712 178.629 65.8802C173.616 65.9917 168.601 65.7497 163.621 65.1559C158.652 64.5616 153.723 63.6636 148.86 62.467C143.982 61.2992 139.21 59.709 134.598 57.7136ZM134.598 79.3193C139.603 79.7509 144.51 80.3651 149.416 80.9527L164.076 82.7426C168.956 83.3282 173.832 83.8172 178.727 84.3053C183.627 84.7809 188.525 85.0753 193.541 85.511C188.655 86.7148 183.655 87.3769 178.629 87.4859C173.616 87.5974 168.601 87.3553 163.621 86.7616C158.652 86.1673 153.723 85.2693 148.86 84.0727C143.982 82.9049 139.21 81.3147 134.598 79.3193ZM134.598 100.925C139.603 101.357 144.51 101.971 149.416 102.558L164.076 104.348C168.956 104.934 173.832 105.423 178.727 105.911C183.627 106.387 188.525 106.681 193.541 107.117C188.655 108.321 183.655 108.983 178.629 109.092C173.616 109.203 168.601 108.961 163.621 108.367C158.652 107.773 153.723 106.875 148.86 105.678C143.982 104.511 139.21 102.92 134.598 100.925ZM134.598 122.531C139.603 122.962 144.51 123.577 149.416 124.164L164.076 125.954C168.956 126.54 173.832 127.029 178.727 127.517C183.627 127.992 188.525 128.287 193.541 128.723C188.655 129.926 183.655 130.588 178.629 130.697C173.616 130.809 168.601 130.567 163.621 129.973C158.652 129.379 153.723 128.481 148.86 127.284C143.982 126.116 139.21 124.526 134.598 122.531ZM134.598 144.137C139.603 144.568 144.51 145.182 149.416 145.77L164.076 147.56C168.956 148.145 173.832 148.634 178.727 149.123C183.627 149.598 188.525 149.892 193.541 150.328C188.655 151.532 183.655 152.194 178.629 152.303C173.616 152.415 168.601 152.173 163.621 151.579C158.652 150.984 153.723 150.087 148.86 148.89C143.982 147.722 139.21 146.132 134.598 144.137Z" fill="#E59413"/>
<path d="M274.723 60.6047L251.606 64.5796C251.35 64.6303 251.087 64.629 250.831 64.576C250.576 64.5229 250.333 64.4191 250.117 64.2705C249.901 64.1218 249.716 63.9312 249.572 63.7096C249.428 63.488 249.329 63.2397 249.279 62.9788L248.513 45.9533C248.463 45.6925 248.464 45.4242 248.516 45.1638C248.568 44.9035 248.67 44.6561 248.816 44.4358C248.962 44.2156 249.148 44.0268 249.366 43.8802C249.583 43.7336 249.827 43.632 250.083 43.5814L273.497 38.6752C273.753 38.6246 274.016 38.6258 274.271 38.6789C274.527 38.7319 274.769 38.8357 274.985 38.9844C275.201 39.133 275.386 39.3236 275.53 39.5453C275.674 39.7669 275.774 40.0152 275.823 40.2761L276.293 58.2328C276.394 58.7596 276.284 59.3055 275.99 59.7503C275.696 60.1951 275.24 60.5025 274.723 60.6047ZM261.599 102.551L238.482 106.526C238.226 106.577 237.963 106.576 237.708 106.523C237.452 106.469 237.21 106.366 236.994 106.217C236.778 106.068 236.592 105.878 236.449 105.656C236.305 105.435 236.205 105.186 236.156 104.925L235.389 87.8999C235.289 87.373 235.398 86.8272 235.692 86.3823C235.987 85.9375 236.442 85.6302 236.959 85.5279L260.373 80.6217C260.629 80.5711 260.892 80.5724 261.147 80.6254C261.403 80.6785 261.645 80.7823 261.862 80.9309C262.078 81.0796 262.263 81.2701 262.407 81.4918C262.55 81.7134 262.65 81.9617 262.7 82.2226L263.17 100.179C263.219 100.44 263.218 100.708 263.166 100.969C263.114 101.229 263.012 101.477 262.866 101.697C262.721 101.917 262.534 102.106 262.316 102.253C262.099 102.399 261.855 102.501 261.599 102.551Z" fill="#EE781D"/>
<path d="M236.959 85.5279C236.442 85.6302 235.987 85.9375 235.692 86.3823C235.398 86.8271 235.289 87.373 235.389 87.8998L236.156 104.925C236.256 105.452 236.557 105.917 236.994 106.217C237.43 106.517 237.965 106.628 238.482 106.526L247.571 104.963L245.508 83.7366L236.959 85.5279Z" fill="#CE800D"/>
<path d="M270.648 144.498L247.53 148.473C247.013 148.575 246.478 148.464 246.042 148.163C245.605 147.863 245.304 147.399 245.204 146.872L244.437 129.846C244.387 129.585 244.388 129.317 244.441 129.057C244.493 128.796 244.594 128.549 244.74 128.329C244.886 128.109 245.073 127.92 245.29 127.773C245.508 127.627 245.751 127.525 246.007 127.474L269.421 122.568C269.677 122.518 269.94 122.519 270.196 122.572C270.451 122.625 270.694 122.729 270.91 122.877C271.126 123.026 271.311 123.217 271.455 123.438C271.598 123.66 271.698 123.908 271.748 124.169L272.218 142.126C272.267 142.387 272.266 142.655 272.214 142.915C272.162 143.176 272.06 143.423 271.914 143.643C271.769 143.864 271.582 144.052 271.364 144.199C271.147 144.346 270.903 144.447 270.648 144.498Z" fill="#EE781D"/>
<path d="M246.007 127.474C245.49 127.577 245.035 127.884 244.74 128.329C244.446 128.774 244.337 129.32 244.437 129.846L245.204 146.872C245.259 147.161 245.377 147.434 245.547 147.671C245.718 147.909 245.938 148.105 246.191 148.246C248.142 141.265 249.177 134.05 249.268 126.791L246.007 127.474Z" fill="#CE800D"/>
<path d="M80.7768 174.738L65.1064 165.625L56.1685 181.602L71.8389 190.715L80.7768 174.738Z" fill="#DBE8EC"/>
<path d="M140.595 170.622C150.438 163.054 157.86 152.68 161.92 140.812C165.981 128.944 166.499 116.115 163.409 103.947C160.319 91.7789 153.759 80.8183 144.559 72.4511C135.359 64.084 123.933 58.6861 111.724 56.94C99.5151 55.1938 87.0728 57.1779 75.97 62.6413C64.8673 68.1047 55.6028 76.8021 49.348 87.6336C43.0933 98.4652 40.1292 110.945 40.8306 123.494C41.5319 136.043 45.8672 148.098 53.2883 158.135C58.2161 164.8 64.3835 170.411 71.4384 174.646C78.4932 178.881 86.2972 181.658 94.4047 182.817C102.512 183.977 110.764 183.497 118.69 181.404C126.615 179.312 134.059 175.648 140.595 170.622ZM62.9922 150.685C57.0144 142.604 53.5212 132.897 52.9545 122.792C52.3877 112.687 54.7728 102.638 59.8081 93.9148C64.8435 85.1919 72.3028 78.1872 81.2429 73.7868C90.1829 69.3863 100.202 67.7877 110.033 69.1931C119.864 70.5985 129.066 74.9448 136.474 81.6823C143.883 88.4198 149.165 97.2458 151.653 107.044C154.142 116.843 153.724 127.173 150.454 136.73C147.183 146.286 141.206 154.639 133.279 160.733C122.651 168.9 109.276 172.43 96.0953 170.546C82.9148 168.662 71.0077 161.518 62.9922 150.685Z" fill="#3086A3"/>
<path opacity="0.76" d="M103.064 171.048C130.784 171.048 153.255 148.138 153.255 119.876C153.255 91.6137 130.784 68.7029 103.064 68.7029C75.3448 68.7029 52.8735 91.6137 52.8735 119.876C52.8735 148.138 75.3448 171.048 103.064 171.048Z" fill="white"/>
<path d="M138.899 122.122C138.421 130.049 135.427 137.603 130.369 143.643C125.311 149.683 118.464 153.882 110.86 155.607C103.256 157.331 95.308 156.487 88.2158 153.202C81.1235 149.917 75.2716 144.37 71.543 137.397" stroke="#DBE8EC" stroke-width="10" stroke-miterlimit="10"/>
<path d="M76.576 193.418L51.4758 178.821C50.5237 178.268 49.3116 178.606 48.7686 179.576L12.0559 245.202C11.5129 246.173 11.8445 247.409 12.7966 247.962L37.8968 262.559C38.8489 263.112 40.0609 262.774 40.604 261.804L77.3166 196.178C77.8597 195.207 77.5281 193.971 76.576 193.418Z" fill="#3086A3"/>
<path d="M40.6032 261.804L77.316 196.177C77.4451 195.947 77.5284 195.692 77.5611 195.429C77.5937 195.165 77.5751 194.897 77.5064 194.641C77.4376 194.385 77.3199 194.145 77.1602 193.935C77.0004 193.725 76.8017 193.549 76.5753 193.417L70.3328 189.787C70.7898 190.053 71.1246 190.493 71.2634 191.011C71.4022 191.528 71.3338 192.081 71.073 192.547L34.3604 258.173C34.2313 258.404 34.0588 258.607 33.8529 258.77C33.647 258.932 33.4116 259.052 33.1602 259.122C32.9088 259.193 32.6464 259.211 32.3878 259.178C32.1292 259.145 31.8796 259.06 31.6533 258.928L37.8961 262.559C38.1225 262.69 38.3721 262.775 38.6307 262.809C38.8892 262.842 39.1517 262.823 39.4031 262.753C39.6545 262.683 39.8898 262.563 40.0958 262.4C40.3017 262.237 40.4741 262.034 40.6032 261.804Z" fill="#25788E"/>
<path d="M18.092 248.713L54.8046 183.087C54.9337 182.856 55.1061 182.653 55.3121 182.49C55.518 182.327 55.7534 182.207 56.0048 182.137C56.2561 182.067 56.5186 182.048 56.7772 182.082C57.0358 182.115 57.2854 182.2 57.5117 182.331L64.4457 186.364L51.4751 178.821C51.0179 178.555 50.4758 178.485 49.9681 178.627C49.4605 178.769 49.0287 179.11 48.7679 179.576L12.0552 245.202C11.7945 245.668 11.7261 246.221 11.8649 246.739C12.0038 247.256 12.3387 247.696 12.7958 247.962L18.8325 251.473C18.6062 251.341 18.4074 251.165 18.2477 250.955C18.0879 250.745 17.9703 250.505 17.9015 250.249C17.8328 249.993 17.8142 249.725 17.8469 249.462C17.8795 249.198 17.9628 248.943 18.092 248.713Z" fill="#409CB5"/>
<path d="M25.7667 255.505L37.8957 262.558H37.8967L25.7667 255.505Z" fill="#409CB5"/>
<path d="M12.6697 241.671L43.2724 259.467C43.7296 259.733 44.0645 260.173 44.2034 260.69C44.3423 261.208 44.2738 261.761 44.0131 262.227L41.0918 267.449C39.374 270.52 36.53 272.769 33.1856 273.702C29.8412 274.635 26.2703 274.175 23.2585 272.423L11.9203 265.83C10.429 264.963 9.11977 263.804 8.06748 262.421C7.01519 261.038 6.24041 259.457 5.78735 257.769C5.3343 256.081 5.21184 254.318 5.42699 252.581C5.64214 250.844 6.19066 249.168 7.04126 247.648L9.96246 242.426C10.2232 241.96 10.655 241.618 11.1627 241.477C11.6704 241.335 12.2124 241.405 12.6697 241.671Z" fill="#DBE8EC"/>
<path d="M12.9756 251.144L15.8967 245.922C16.1575 245.456 16.5893 245.115 17.097 244.973C17.6047 244.831 18.1468 244.901 18.604 245.167L43.5864 259.695C43.4891 259.609 43.3839 259.532 43.2722 259.467L12.6694 241.67C12.2122 241.405 11.6701 241.335 11.1624 241.476C10.6547 241.618 10.223 241.959 9.96216 242.426L7.04093 247.647C5.32312 250.718 4.87211 254.359 5.78711 257.769C6.70211 261.179 8.90818 264.078 11.92 265.83L17.208 268.905C14.4136 267.053 12.4189 264.183 11.6321 260.881C10.8453 257.58 11.3259 254.096 12.9756 251.144Z" fill="#E8EEEF"/>
<path d="M41.0916 267.449L44.0128 262.227C44.2735 261.761 44.342 261.208 44.2031 260.69C44.0642 260.173 43.7294 259.733 43.2722 259.467L37.0025 255.821C37.458 256.087 37.7912 256.527 37.9291 257.044C38.067 257.561 37.9983 258.112 37.7381 258.577L34.817 263.799C33.0991 266.87 30.2552 269.119 26.9108 270.052C23.5664 270.985 19.9954 270.525 16.9836 268.773L11.9095 265.823L11.92 265.83L23.2583 272.423C24.7496 273.29 26.3938 273.849 28.0971 274.069C29.8004 274.288 31.5294 274.163 33.1854 273.701C34.8414 273.24 36.3919 272.45 37.7484 271.377C39.105 270.304 40.241 268.969 41.0916 267.449Z" fill="#BAD5DB"/>
</g>
<defs>
<clipPath id="clip0_1_2">
<rect width="319.436" height="279.027" fill="white" transform="translate(0.564056)"/>
</clipPath>
</defs>
</svg>

<svg xmlns="http://www.w3.org/2000/svg" width="320" height="280" fill="none" xmlns:v="https://vecta.io/nano"><g clip-path="url(#A)"><g fill="#999"><path d="M202.956 195.07l116.33-11.539-4.851-134.56L211.64 59.516l-8.684 135.555z"/><path d="M202.956 44.526l101.692-11.655 4.71 151.644-106.402 10.555V44.526z"/><path d="M208.672 43.555l-106.931-1.943 5.715 147.63 95.5 5.828 5.716-151.515z"/></g><path d="M203.909 36.513L305.6 24.858l7.145 152.001-108.836 10.198V36.513z" fill="#f9ae2b"/><path d="M203.909 182.025v5.032l108.836-10.198-.235-5.01-108.601 10.176z" fill="#e59413"/><path d="M203.909 36.513L96.978 34.571l5.715 147.63 101.216 4.856V36.513z" fill="#f9ae2b"/><g fill="#e59413"><path d="M102.693 182.201l101.216 4.856v-5.184l-101.216-4.857v5.185z"/><path d="M109.427 132.945c.306 11.867 4.39 23.311 11.637 32.602s17.262 15.927 28.533 18.904l44.548 2.137V42.826s-33.66 2.437-68.561-7.736l-18.675-.339 2.518 98.194zm151.284 48.789c10.995-7.999 19.843-18.687 25.729-31.083s8.62-26.101 7.954-39.857l-4.081-84.184-24.662 2.827c-22.545 11.638-50.114 18.931-50.114 18.931v137.599l45.174-4.233z"/></g><path d="M203.909 36.513S260.828 21.459 277.975.091l4.791 98.848c.929 19.162-4.748 38.051-16.046 53.393s-27.505 26.169-45.812 30.606l-16.999 4.119V36.513z" fill="#f9ae2b"/><path d="M219.04 36.513l-15.131 150.544s19.268-1.484 20.779-1.947c16.919-15.824 26.551-42.411 24.256-66.03l-9.222-94.879c-6.123 2.562-12.125 4.779-17.416 6.599l-3.266 5.713z" fill="#e59413"/><path d="M203.909 36.513S220.342 8.347 222.247.091l11.565 118.989c1.264 13.005-.83 26.122-6.076 38.047s-13.46 22.243-23.827 29.93V36.513zm0 0s-46.916 3.399-87.402-14.569l2.684 104.688c.319 12.452 4.797 24.419 12.694 33.923s18.737 15.977 30.731 18.346l41.293 8.156V36.513z" fill="#f9ae2b"/><path d="M203.909 36.513c.821 12.545 1.251 25.091 1.543 37.636l.331 18.818.11 18.818-.105 18.818-.33 18.818c-.291 12.545-.723 25.091-1.549 37.636-.826-12.545-1.258-25.091-1.549-37.636l-.33-18.818-.104-18.818.109-18.818.331-18.818c.292-12.545.722-25.091 1.543-37.636zm-69.311 21.201c5.005.432 9.912 1.046 14.818 1.633l14.66 1.79 14.651 1.563c4.9.476 9.798.77 14.814 1.206-4.886 1.204-9.886 1.866-14.912 1.975-5.013.111-10.028-.13-15.008-.724a122.82 122.82 0 0 1-14.761-2.689 86.83 86.83 0 0 1-14.262-4.753zm0 21.606c5.005.432 9.912 1.046 14.818 1.633l14.66 1.79 14.651 1.563c4.9.476 9.798.77 14.814 1.206-4.886 1.204-9.886 1.866-14.912 1.975a106.73 106.73 0 0 1-15.008-.724 122.82 122.82 0 0 1-14.761-2.689 86.83 86.83 0 0 1-14.262-4.753zm0 21.606c5.005.432 9.912 1.046 14.818 1.633l14.66 1.79 14.651 1.563c4.9.476 9.798.77 14.814 1.206a68.53 68.53 0 0 1-14.912 1.975 106.76 106.76 0 0 1-15.008-.725 122.68 122.68 0 0 1-14.761-2.689 86.79 86.79 0 0 1-14.262-4.753zm0 21.606c5.005.431 9.912 1.046 14.818 1.633l14.66 1.79 14.651 1.563c4.9.475 9.798.77 14.814 1.206a68.59 68.59 0 0 1-14.912 1.974 106.61 106.61 0 0 1-15.008-.724 122.68 122.68 0 0 1-14.761-2.689c-4.878-1.168-9.65-2.758-14.262-4.753zm0 21.606c5.005.431 9.912 1.045 14.818 1.633l14.66 1.79 14.651 1.563c4.9.475 9.798.769 14.814 1.205a68.53 68.53 0 0 1-14.912 1.975 106.61 106.61 0 0 1-15.008-.724 122.88 122.88 0 0 1-14.761-2.689c-4.878-1.168-9.65-2.758-14.262-4.753z" fill="#e59413"/><path d="M274.723 60.605l-23.117 3.975a1.95 1.95 0 0 1-.775-.004 1.97 1.97 0 0 1-.714-.305 2.01 2.01 0 0 1-.545-.561c-.144-.222-.243-.47-.293-.731l-.766-17.025c-.05-.261-.049-.529.003-.789a2.04 2.04 0 0 1 .3-.728 2 2 0 0 1 .55-.556 1.96 1.96 0 0 1 .717-.299l23.414-4.906c.256-.051.519-.049.774.004a1.96 1.96 0 0 1 .714.306c.216.149.401.339.545.561a2.03 2.03 0 0 1 .293.731l.47 17.957c.101.527-.009 1.073-.303 1.518a1.98 1.98 0 0 1-1.267.854zm-13.124 41.946l-23.117 3.975a1.94 1.94 0 0 1-.774-.003 1.97 1.97 0 0 1-.714-.306c-.216-.149-.402-.339-.545-.561s-.244-.47-.293-.731l-.767-17.025a2.06 2.06 0 0 1 .303-1.518c.295-.445.75-.752 1.267-.854l23.414-4.906c.256-.051.519-.049.774.004s.498.157.715.305a2.01 2.01 0 0 1 .545.561c.143.222.243.47.293.731l.47 17.956a2.08 2.08 0 0 1-.004.79 2.04 2.04 0 0 1-.3.728c-.145.22-.332.409-.55.556a1.96 1.96 0 0 1-.717.298z" fill="#ee781d"/><path d="M236.959 85.528c-.517.102-.972.41-1.267.854a2.06 2.06 0 0 0-.303 1.517l.767 17.025a2.02 2.02 0 0 0 .838 1.292c.436.3.971.411 1.488.309l9.089-1.563-2.063-21.226-8.549 1.791z" fill="#ce800d"/><path d="M270.648 144.498l-23.118 3.975a1.95 1.95 0 0 1-1.488-.31 2.02 2.02 0 0 1-.838-1.291l-.767-17.026c-.05-.261-.049-.529.004-.789s.153-.508.299-.728a2.02 2.02 0 0 1 .55-.556c.218-.146.461-.248.717-.299l23.414-4.906c.256-.05.519-.049.775.004s.498.157.714.305a2.02 2.02 0 0 1 .545.561 2.07 2.07 0 0 1 .293.731l.47 17.957c.049.261.048.529-.004.789s-.154.508-.3.728a1.98 1.98 0 0 1-.55.556c-.217.147-.461.248-.716.299z" fill="#ee781d"/><path d="M246.007 127.474c-.517.103-.972.41-1.267.855a2.06 2.06 0 0 0-.303 1.517l.767 17.026a2.02 2.02 0 0 0 .343.799 1.98 1.98 0 0 0 .644.575 83.62 83.62 0 0 0 3.077-21.455l-3.261.683z" fill="#ce800d"/><path d="M80.777 174.738l-15.67-9.113-8.938 15.977 15.67 9.113 8.938-15.977z" fill="#dbe8ec"/><path d="M140.595 170.622c9.843-7.568 17.265-17.942 21.325-29.81a64.74 64.74 0 0 0 1.489-36.865c-3.09-12.168-9.65-23.129-18.85-31.496s-20.626-13.765-32.835-15.511-24.651.238-35.754 5.701-20.367 14.161-26.622 24.992-9.219 23.311-8.517 35.86 5.037 24.604 12.458 34.641c4.928 6.665 11.095 12.276 18.15 16.511s14.859 7.012 22.966 8.171 16.359.68 24.285-1.413 15.369-5.756 21.905-10.782zm-77.603-19.937c-5.978-8.081-9.471-17.788-10.038-27.893s1.818-20.154 6.854-28.877 12.495-15.728 21.435-20.128 18.959-5.999 28.79-4.594 19.033 5.752 26.441 12.489 12.691 15.564 15.179 25.362 2.071 20.129-1.199 29.686-9.248 17.909-17.175 24.003c-10.628 8.167-24.003 11.697-37.184 9.813s-25.088-9.028-33.103-19.861z" fill="#3086a3"/><path opacity=".76" d="M103.064 171.048c27.72 0 50.191-22.91 50.191-51.172s-22.471-51.173-50.191-51.173-50.19 22.911-50.19 51.173 22.471 51.172 50.19 51.172z" fill="#fff"/><path d="M138.899 122.122c-.478 7.927-3.472 15.481-8.53 21.521s-11.905 10.239-19.509 11.964-15.552.88-22.644-2.405-12.944-8.832-16.673-15.805" stroke="#dbe8ec" stroke-width="10" stroke-miterlimit="10"/><path d="M76.576 193.418l-25.1-14.597c-.952-.553-2.164-.215-2.707.755l-36.713 65.626c-.543.971-.211 2.207.741 2.76l25.1 14.597c.952.553 2.164.215 2.707-.755l36.713-65.626c.543-.971.212-2.207-.741-2.76z" fill="#3086a3"/><path d="M40.603 261.804l36.713-65.627c.129-.23.212-.485.245-.748s.014-.532-.055-.788a2.04 2.04 0 0 0-.346-.706c-.16-.21-.359-.386-.585-.518l-6.242-3.63a2.02 2.02 0 0 1 .931 1.224 2.06 2.06 0 0 1-.19 1.536L34.36 258.173c-.129.231-.302.434-.508.597a1.98 1.98 0 0 1-.693.352c-.251.071-.514.089-.772.056s-.508-.118-.734-.25l6.243 3.631c.226.131.476.216.735.25s.521.014.772-.056.487-.19.693-.353.378-.366.507-.596z" fill="#25788e"/><g fill="#409cb5"><path d="M18.092 248.713l36.713-65.626a2 2 0 0 1 .508-.597 1.97 1.97 0 0 1 .693-.353c.252-.07.514-.089.772-.055a1.98 1.98 0 0 1 .734.249l6.934 4.033-12.971-7.543a1.95 1.95 0 0 0-1.507-.194 1.99 1.99 0 0 0-1.2.949l-36.713 65.626a2.06 2.06 0 0 0-.19 1.537 2.02 2.02 0 0 0 .931 1.223l6.037 3.511a2.01 2.01 0 0 1-.585-.518 2.04 2.04 0 0 1-.346-.706 2.06 2.06 0 0 1-.055-.787 2.04 2.04 0 0 1 .245-.749zm7.675 6.792l12.129 7.053h.001l-12.13-7.053z"/></g><path d="M12.67 241.671l30.603 17.796a2.02 2.02 0 0 1 .931 1.223 2.06 2.06 0 0 1-.19 1.537l-2.921 5.222c-1.718 3.071-4.562 5.32-7.906 6.253a12.85 12.85 0 0 1-9.927-1.279L11.92 265.83a13.15 13.15 0 0 1-3.853-3.409c-1.052-1.383-1.827-2.964-2.28-4.652a13.58 13.58 0 0 1-.36-5.188 13.5 13.5 0 0 1 1.614-4.933l2.921-5.222a1.99 1.99 0 0 1 1.2-.949 1.95 1.95 0 0 1 1.507.194z" fill="#dbe8ec"/><path d="M12.976 251.144l2.921-5.222c.261-.466.693-.807 1.2-.949a1.95 1.95 0 0 1 1.507.194l24.982 14.528a1.98 1.98 0 0 0-.314-.228L12.669 241.67a1.96 1.96 0 0 0-1.507-.194 1.99 1.99 0 0 0-1.2.95l-2.921 5.221a13.56 13.56 0 0 0-1.254 10.122c.915 3.41 3.121 6.309 6.133 8.061l5.288 3.075c-2.794-1.852-4.789-4.722-5.576-8.024s-.306-6.785 1.344-9.737z" fill="#e8eeef"/><path d="M41.092 267.449l2.921-5.222a2.06 2.06 0 0 0 .19-1.537 2.02 2.02 0 0 0-.931-1.223l-6.27-3.646c.456.266.789.706.927 1.223s.069 1.068-.191 1.533l-2.921 5.222c-1.718 3.071-4.562 5.32-7.906 6.253a12.85 12.85 0 0 1-9.927-1.279l-5.074-2.95.011.007 11.338 6.593a12.92 12.92 0 0 0 4.839 1.646c1.703.219 3.432.094 5.088-.368s3.206-1.251 4.563-2.324 2.493-2.408 3.343-3.928z" fill="#bad5db"/></g><defs><clipPath id="A"><path fill="#fff" transform="translate(.564)" d="M0 0h319.436v279.027H0z"/></clipPath></defs></svg>
